X: 23822
T: Little Lady, The
R: polka
M: 2/4
K: Dmajor
DD/E/ Fd|B/A/G A2|A/G/F/A/ GG/E/|FG/F/ EA|
DD/E/ Fd|B/A/G AB|=c/B/A/c/ BB/G/|AG/F/ EF:|
DF/A/ df|g/f/e f2|g/f/e/g/ ff/d/|BB/A/ G/F/E/A/|
DF/A/ df|g/f/e fe/d/|=c/B/A/c/ BB/G/|AG/F/ EA:|

